app/themes/uggwc_pro/assets/images/thema/Medizin.svg

<svg width="16" height="16" viewBox="0 0 16 16" fill="none" xmlns="http://www.w3.org/2000/svg">
<g clip-path="url(#clip0_111_197)">
<path d="M13.9719 3.49998C12.9031 3.51561 12.025 4.38748 12.0031 5.45623C11.9875 6.21561 12.3938 6.88123 13.0031 7.23123V10.75C13.0031 12.5406 11.4344 14 9.50313 14C7.62813 14 6.09062 12.6219 6.00625 10.9C8.28125 10.4312 10 8.41248 10 5.99998V1.14373C10 0.787481 9.74688 0.478106 9.39688 0.409356L7.43125 0.0156063C7.025 -0.0656437 6.63125 0.196856 6.55 0.603106L6.45 1.09373C6.36875 1.49998 6.63125 1.89373 7.0375 1.97498L7.99687 2.16561V5.95936C7.99687 7.61248 6.67813 8.98123 5.025 8.99686C3.35625 9.01248 1.99688 7.66248 1.99688 5.99686V2.16873L2.95625 1.97811C3.3625 1.89686 3.625 1.50311 3.54375 1.09686L3.44688 0.606231C3.36563 0.199981 2.97187 -0.0625187 2.56562 0.0187313L0.603125 0.406231C0.253125 0.478106 0 0.784356 0 1.14373V5.99998C0 8.41561 1.72188 10.4375 4.00313 10.9C4.08438 13.725 6.51875 16 9.5 16C12.5312 16 15 13.6437 15 10.75V7.23123C15.5969 6.88436 16 6.24061 16 5.49998C16 4.38436 15.0875 3.48436 13.9719 3.49998ZM14 5.99998C13.725 5.99998 13.5 5.77498 13.5 5.49998C13.5 5.22498 13.725 4.99998 14 4.99998C14.275 4.99998 14.5 5.22498 14.5 5.49998C14.5 5.77498 14.275 5.99998 14 5.99998Z" fill="#6E6CFF"/>
</g>
<defs>
<clipPath id="clip0_111_197">
<rect width="16" height="16" fill="white"/>
</clipPath>
</defs>
</svg>

<svg width="16" height="16" fill="none" xmlns="http://www.w3.org/2000/svg"><g clip-path="url(#a)"><path d="M13.972 3.5a2.008 2.008 0 0 0-1.969 1.956c-.015.76.39 1.425 1 1.775v3.519c0 1.79-1.569 3.25-3.5 3.25-1.875 0-3.412-1.378-3.497-3.1A5.013 5.013 0 0 0 10 6V1.144a.75.75 0 0 0-.603-.735L7.43.016a.748.748 0 0 0-.881.587l-.1.49c-.081.407.181.8.587.882l.96.19V5.96c0 1.653-1.319 3.022-2.972 3.038a3 3 0 0 1-3.028-3V2.169l.96-.19a.748.748 0 0 0 .587-.882l-.097-.49a.748.748 0 0 0-.881-.588L.603.406A.753.753 0 0 0 0 1.144V6a5.008 5.008 0 0 0 4.003 4.9C4.084 13.725 6.52 16 9.5 16c3.031 0 5.5-2.356 5.5-5.25V7.231A2 2 0 0 0 13.972 3.5zM14 6a.501.501 0 0 1-.5-.5c0-.275.225-.5.5-.5s.5.225.5.5-.225.5-.5.5z" fill="#6E6CFF"/></g><defs><clipPath id="a"><path fill="#fff" d="M0 0h16v16H0z"/></clipPath></defs></svg>
